X:91
T:Sean Ryan's
M:6/8
L:1/8
K:A Dorian
B|"Am"c2A "G"BdB|"Am"AGE "G"DB,G,|"Am"A,3 "G"EDB,|"Dm"DEG "Em"AGE|
"Am"cBA "G"BdB|"Am"AGE "G"DB,G,|"Am (F)"A,3 "G"EDB,|"G"DB,G, "Am"A,2:|
B|"Am"cBA a3|"Em"bag edB|"G"GBd g3|"G"GBd "Am"cBA|
"Dm"c3 "G7"d3|"C"ede gab|"F"age dBG|"Em"EFG "Am"A2:|
